X:1
T:Partita VI Air
T:BWV 830
T:J. S. Bach
%%score { ( 1 3 ) | 2 }
L:1/8
M:2/2
K:G
V:1 treble nm="Harp"
V:3 treble 
V:2 bass 
V:1
 EFGA | BcdB egfe | ^d^cBA G2 e2 | ^d2 b2 ga b/4a/4b/4a/4b/4a/4g/4a/4 | b4 dcdb | c2 a2 B2 ^g2 | %6
 agfe dcBA | B2 g2 A2 f2 | gfed cBca | BABg AGAf | GFGe FEF^d | E2 b2 [B^d]2 [^ce]2 | [^df]4 EFGA | %13
 BcdB egfe | ^d^cBA G2 e2 | ^d2 b2 ga b/4a/4b/4a/4b/4a/4g/4a/4 | b4 dcdb | c2 a2 B2 ^g2 | %18
 agfe dcBA | B2 g2 A2 f2 | gfed cBca | BABg AGAf | GFGe FEF^d | E2 b2 [B^d]2 [^ce]2 | f4 F2 c2- | %25
 c2 B2- B2 A2- | A2 GF G2 e2- | e2 d2- d2 c2- | c2 BA B2 g2 | f2 c'2- c'bag | f2 c2- cB e2- | %31
 edcB dcBA | G4 B,D G2- | G2 FE FA d2- | d2 cB ce a2- | a2 gf agfe | ^dfBA G2 c'2 | F2 b2 E2 a2 | %38
 D2 g2 C2 f2 | B,2 e2 F2 ^d2 |{^d} e4 F2 c2- | c2 B2- B2 A2- | A2 GF G2 e2- | e2 d2- d2 c2- | %44
 c2 BA B2 g2 | f2 c'2- c'bag | f2 c2- cB e2- | edcB dcBA | G4 B,D G2- | G2 FE FA d2- | %50
 d2 cB ce a2- | a2 gf agfe | ^dfBA G2 c'2 | F2 b2 E2 a2 | D2 g2 C2 f2 | B,2 e2 F2 ^d2 | %56
 e/B/^c/^d/ e/d/e/f/ ge=cA | fdBG ecAF | eBGE cAF^D | EGBe Be g/f/e/^d/ | e4 z4 |] %61
V:2
 [E,G,B,]2 z2 | [D,F,B,]2 z2 [C,E,A,]2 z2 | [B,,F,B,]2 z2 E,F,G,A, | B,^C^DB, EGFE | %4
 ^D^CB,A, ^G,E,F,G, | A,B,CA, D=FED | CB,A,G, F,D,E,F, | G,A,B,G, CEDC | B,A,G,F, E,G,F,E, | %9
 D,F,E,D, C,E,D,C, | B,,D,C,B,, A,,C,B,,A,, | G,,B,,A,,G,, A,,G,,F,,E,, | B,,2 B,,,2 [E,G,B,]2 z2 | %13
 [D,F,B,]2 z2 [C,E,A,]2 z2 | [B,,F,B,]2 z2 E,F,G,A, | B,^C^DB, EGFE | ^D^CB,A, ^G,E,F,G, | %17
 A,B,CA, D=FED | CB,A,G, F,D,E,F, | G,A,B,G, CEDC | B,A,G,F, E,G,F,E, | D,F,E,D, C,E,D,C, | %22
 B,,D,C,B,, A,,C,B,,A,, | G,,B,,A,,G,, A,,G,,F,,E,, | B,,2 B,,,2 B,A,G,F, | A,G,F,E, ^D,^C,D,B,, | %26
 E,E,,G,,B,, E,D,C,B,, | C,B,,A,,G,, F,,E,,F,,D,, | G,,G,,,B,,,D,, G,,A,,B,,C, | D,E,F,D, G,A,B,C | %30
 DEFD GFGA | B2 E,2 C,2 D,2 | G,,D,,E,,F,, G,,A,,B,,C, | D,A,,B,,C, D,E,F,G, | A,E,F,^G, A,B,CD | %35
 EB,^C^D EFGA | BAGF EDCB, | DB,A,G, CA,G,F, | B,G,F,E, A,F,^D,F, | G,E,C,A,, B,,2 B,,,2 | %40
 E,,4 B,A,G,F, | A,G,F,E, ^D,^C,D,B,, | E,E,,G,,B,, E,D,C,B,, | C,B,,A,,G,, F,,E,,F,,D,, | %44
 G,,G,,,B,,,D,, G,,A,,B,,C, | D,E,F,D, G,A,B,C | DEFD GFGA | B2 E,2 C,2 D,2 | %48
 G,,D,,E,,F,, G,,A,,B,,C, | D,A,,B,,C, D,E,F,G, | A,E,F,^G, A,B,CD | EB,^C^D EFGA | BAGF EDCB, | %53
 DB,A,G, CA,G,F, | B,G,F,E, A,F,^D,F, | G,E,C,A,, B,,2 B,,,2 | E,,2 z/ B,/^C/^D/ EGE=C | %57
 DFDB, CECA, | B,EB,G, A,CA,F, | G,B,G,E, B,2 B,,2 | E,2 E,,2 z4 |] %61
V:3
 x4 | x8 | x8 | x8 | x8 | x8 | x8 | x8 | x8 | x8 | x8 | x8 | x8 | x8 | x8 | x8 | x8 | x8 | x8 | %19
 x8 | x8 | x8 | x8 | x8 | ^d4 ^D4 | E4 F4 | [B,E]4 E4 | F4 A4 | [DG]4 z4 | x8 | x8 | x8 | x8 | x8 | %34
 x8 | x8 | x8 | x8 | x8 | x8 | x4 ^D4 | E4 F4 | [B,E]4 E4 | F4 A4 | [DG]4 z4 | x8 | x8 | x8 | x8 | %49
 x8 | x8 | x8 | x8 | x8 | x8 | x8 | x8 | x8 | x8 | x8 | x8 |] %61

